app/dist/common/images/omeros.svg

<svg height="18" viewBox="0 0 18 18" width="18" xmlns="http://www.w3.org/2000/svg" xmlns:xlink="http://www.w3.org/1999/xlink"><linearGradient id="a"><stop offset="0" stop-color="#e7811d"/><stop offset="1" stop-color="#e7811d" stop-opacity=".4"/></linearGradient><linearGradient id="b" gradientUnits="userSpaceOnUse" x1="8.82" x2="8.82" xlink:href="#a" y1="8.68" y2="13.02"/><linearGradient id="c" gradientUnits="userSpaceOnUse" x1="6.76" x2="3.94" xlink:href="#a" y1="6.85" y2="12.59"/><linearGradient id="d" gradientUnits="userSpaceOnUse" x1="12.34" x2="14.79" xlink:href="#a" y1="12.33" y2="12.33"/><path d="m0 0h18v18h-18z" fill="#f0f3fa"/><path d="m10.65 7.6c-1.4 0-2.52 1.22-2.52 2.71 0 1.08.58 2 1.43 2.45l-.2.26a3.46 3.46 0 0 1 1.29-6.74z" fill="url(#b)"/><path d="m7.68 3c-1.2 2.28-3.28 7.64-4.18 10.03.5-.5.51-.67 1-1.37a6.95 6.95 0 0 0 1.32-1.78l2.54-5.32z" fill="url(#c)"/><path d="m7.8 6.15.65-1.37 2.44 5.72h-1.23zm2.85 2.55.18-.01a1.8 1.8 0 0 1 1.28 3.08 2.3 2.3 0 0 0 -1.46-4.18v1.1zm-.65 3.97h-3.9l1.42 1.33h2.48z" fill="#e7811d"/><path d="m15.5 11.67h-4v1.33h1.97l1.07-.41-1.26-.26h1.48l.54-.39c-1.09-.1-.32-.23.2-.27z" fill="url(#d)"/></svg>

<!-- by TradingView --><svg xmlns="http://www.w3.org/2000/svg" width="18" height="18" viewBox="0 0 18 18"><path fill="#F0F3FA" d="M0 0h18v18H0z"/><path d="M10.65 7.6c-1.4 0-2.52 1.22-2.52 2.71 0 1.08.58 2 1.43 2.45l-.2.26a3.46 3.46 0 0 1 1.29-6.74V7.6z" fill="url(#akj3jpsh2)"/><path d="M7.68 3C6.48 5.28 4.4 10.64 3.5 13.03c.5-.5.51-.67 1-1.37a6.95 6.95 0 0 0 1.32-1.78l2.54-5.32L7.68 3z" fill="url(#bkj3jpsh2)"/><path d="M7.8 6.15l.65-1.37 2.44 5.72H9.66L7.8 6.15zM10.65 8.7l.18-.01a1.8 1.8 0 0 1 1.28 3.08 2.3 2.3 0 0 0-1.46-4.18v1.1zM10 12.67H6.1L7.52 14H10v-1.33z" fill="#E7811D"/><path d="M15.5 11.67h-4V13h1.97l1.07-.41-1.26-.26h1.48l.54-.39c-1.09-.1-.32-.23.2-.27z" fill="url(#ckj3jpsh2)"/><defs><linearGradient id="akj3jpsh2" x1="8.82" y1="8.68" x2="8.82" y2="13.02" gradientUnits="userSpaceOnUse"><stop stop-color="#E7811D"/><stop offset="1" stop-color="#E7811D" stop-opacity=".4"/></linearGradient><linearGradient id="bkj3jpsh2" x1="6.76" y1="6.85" x2="3.94" y2="12.59" gradientUnits="userSpaceOnUse"><stop stop-color="#E7811D"/><stop offset="1" stop-color="#E7811D" stop-opacity=".4"/></linearGradient><linearGradient id="ckj3jpsh2" x1="12.34" y1="12.33" x2="14.79" y2="12.33" gradientUnits="userSpaceOnUse"><stop stop-color="#E7811D"/><stop offset="1" stop-color="#E7811D" stop-opacity=".4"/></linearGradient></defs></svg>
